**kern	**kern
*staff2	*staff1
*clefF4	*clefG2
*k[b-]	*k[b-]
*M3/8	*M3/8
*d:	*d:
=	=
(8DDL	16r
.	16ALL 16d 16f
8FF	16A 16d 16f
.	16A 16d 16f
8DDJ)	16A 16d 16f
.	16AJJ 16d 16f
=122	=122
(16AALL	16ALL 16c# 16e
16GG#	16A 16c# 16e
16AA	16A 16c# 16e
16BB-J	16A 16c# 16e
8AAJ)	16A 16c# 16e
.	16AJJ 16c# 16e
=123	=123
(8GGL	16ALL 16c# 16e
.	16A 16c# 16e
8EE	16A 16c# 16e
.	16A 16c# 16e
8AAJ)	16A 16c# 16e
.	16AJJ 16c# 16e
=124	=124
(16GGLL	16ALL 16d 16f
16FF	16A 16d 16f
16EE	16A 16d 16f
16FFJ)	16A 16d 16f
8DDJ	16A 16d 16f
.	16AJJ 16d 16f
=125	=125
(8DDL	16ALL 16d 16f
.	16A 16d 16f
8FF	16A 16d 16f
.	16A 16d 16f
8GGJ)	16B 16d 16f
.	16BJJ 16d 16f
=126	=126
(16AALL	16BLL 16d 16e
16GG#	16B 16d 16e
16AA	16B 16c 16e
16BBJ)	16B 16c 16e
8CJ	16A 16c 16e
.	16AJJ 16c 16e
=127	=127
(16CLL	16G#LL 16d 16e
16BBJ	16G# 16d 16e
8AA	16A 16c 16e
.	16A 16c 16e
8GG#J)	16B 16d 16e
.	16BJJ 16d 16e
=128	=128
4.AA	16ALL 16c 16e
.	16A 16c 16e
.	16A 16c 16e
.	16A 16c 16e
.	16A 16c# 16e
.	16AJJ 16c# 16e
=129	=129
*-	*-
